svg/beaker_alert_outline.svg

<?xml version="1.0" encoding="UTF-8"?><!DOCTYPE svg PUBLIC "-//W3C//DTD SVG 1.1//EN" "http://www.w3.org/Graphics/SVG/1.1/DTD/svg11.dtd"><svg xmlns="http://www.w3.org/2000/svg" xmlns:xlink="http://www.w3.org/1999/xlink" version="1.1" id="mdi-beaker-alert-outline" width="24" height="24" viewBox="0 0 24 24"><path d="M3 3H21V5C19.9 5 19 5.9 19 7V19C19 20.11 18.11 21 17 21H7C5.9 21 5 20.11 5 19V7C5 5.9 4.11 5 3 5V3M7 5V7H12V8H7V9H10V10H7V11H10V12H7V13H12V14H7V15H10V16H7V19H17V5H7M21 13V7H23V13H21M21 17V15H23V17H21Z" /></svg>

<svg xmlns="http://www.w3.org/2000/svg" viewBox="0 0 24 24"><path d="M3 3h18v2c-1.1 0-2 .9-2 2v12c0 1.11-.89 2-2 2H7a2 2 0 0 1-2-2V7a2 2 0 0 0-2-2zm4 2v2h5v1H7v1h3v1H7v1h3v1H7v1h5v1H7v1h3v1H7v3h10V5zm14 8V7h2v6zm0 4v-2h2v2z"/></svg>
